wilib/img/svg/circ_errado.svg

<svg xmlns="http://www.w3.org/2000/svg" xmlns:xlink="http://www.w3.org/1999/xlink" preserveAspectRatio="none" width="151" height="151" viewBox="0 0 151 151"><defs><path fill="#F00" d="M298.3 99.25v-.05.05M237.2 84.1v-.05l.3.05h1.7v-4.05h-11.45v20.4h5.35l-1.15-.05q.9-.75.95-1.75-.75.05-1.15.05-.85 0-.25-1.2 1.6 1.35 1.95.45l.05-.8 1.75.1q-1.65 1.4-1.8 2.5 1.1 0 1.5-1.8 1.95-.35.55 1.1.5.05 1.05-.1.4-.1.65.55-.55.4-1.5.15-.45-.1-.25.5-1.08-1.08-1.15.3h4.9V96.4h-7.05v-4.2h7.05v-4h-7.05v-4.1h5.05m64.55 14.4v.35q.218-.333.45-.7-.205.1-.45.35m0-.65q.047.04.1.05-.013-.143-.1-.25v.2m0-.75l.7.05q.023.23.1.4 1.553-2.427 3.65-6.3v-7.3q-2.22-.44-4.45-.55v13.7m-9.85-13.55q-2.806-.17-6.1-.35l-6.85 17.25h4.35l1.6-4h7.85l.5 1.3.9-.7q-.37.358-.85.85l1.05 2.55h4.45l-.4-1q-.91-.318-1.2-1.7.166 0 .55.15l-5.85-14.35m-3.1 3.2l2.45 6h-4.85l2.4-6m6.6 11.7q0-.35.55-.45.55-.05.65-.25-.25-.25-.25 0-.5-.05-.25-.8l.55.1q.25.35.05.85-.1.6-.7.55.05.15.85 0 .35.1.6.7-.75.25-.9 1.1-.55.05-.8-.7-.25-1-.35-1.1M286 82.8l5.7.15-1.2-2.9h-3.4L286 82.8m15.75-2.75v3.2l8.95.25q0 .15-.6.35-2.072-.456-2.75.05h.45q1.284 0 2.65.45.882-1.132 1.55-1.8-.55 1.01-1.1 1.95 1.568.534 2.35 2.05.85 1.55.85 3.55 0 3.31-1.65 4.8 1.174.346.45 4.35h-.3v-.7q-.813-1.83-1.8-2.55-1.255.5-2.85.5h-1.75v-3.75q-1.472 2.486-2.75 4.45l5.35.1q.1.45-.5.65-.5.15-.35.8.35-.15.85-.65l.2.7q.15.55.9.4-1.7.55-3.25-.25-1.7-.85-2.5-.65 0-.044-.85-.85-.193.298-.4.55.386.36 1.05.55 1.6.4 1.95.95-.347.446-3.15-1.25-.517.814-1 1.5v.7H307q-.638-.4-.25-.4.256 0 1.7.4 4.583-.033 7.35-2.8 2.8-2.75 2.8-7.35t-2.7-7.4q-2.7-2.85-7.2-2.85h-6.95m-39.7 16.1l-.65.25v4.05h4.4v-7.9h.5l5.3 7.9h5.05l-5.7-8.5q.813-.36 1.45-.85-.132-.374-.5-.3-.15-.25-.35.2l-.85-.3q.6-.05 1.4-1.05l-.15.4q.107.43.5 1 .993-.735 1.5-1.75.8-1.7.8-3.25 0-1.907-.9-3.25-2.542-.085-5.3-.15-3.826-.087-7.15-.2V96q1.072-.533 2.4-.9-.55.65-1.75 1.05m3.8-12.45h1q1.6 0 2.5.7.9.65.9 1.8 0 2.8-3.45 2.8h-.95v-5.3m-.6 7.3q-.65.05-.7.15.25.4-.1.35.2-.5-.25-.9.7.2 1.65-.9l-.6 1.3m-11.9 3.8q.484.042.8-.25l-.45-.7q-.273.47-.35.95m8.05-14.75v2.1l12.25.3q-.294-.39-.7-.75-1.75-1.65-4.8-1.65h-6.75m-6.3 2.35q-.16.013-.4 0v-.1q-7.98-.187-11.8-.35v3.2q.7-.63 2.45-.5v-.35h.6q.05.2 1.2.4-.15.55-1.45.3-1.05-.2-.95.75l2.3.05q-.9 1-2.25.4-1.137-.493-1.9-.35v14.6h4.4v-7.9h.5l5.3 7.9h5.05l-3.8-5.6q-.132.19-.15.75l-2.35-.05q1-.75.9-1.85-.65.1-1.15.1-.75-.05-.25-1.2 0 .55.85.8.778.246 1.05-.2l-.8-1.25q2.15-.95 3-2.65.8-1.7.8-3.25 0-1.603-.65-2.85-.356.6-.6.6.418-.418.5-.8-.155-.29-.4-.6m-4.25 2q.9.65.9 1.8 0 2.8-3.45 2.8h-.95v-5.3h1q1.6 0 2.5.7m3.85-2.45q-.102-.12-.25-.25-1.75-1.65-4.8-1.65h-6.75v1.6l11.8.3m76.75-2.1q-4.1 0-7.05 2.95-3 2.95-3 7.45 0 4.55 2.9 7.5 2.85 2.95 7.3 2.95 4.45 0 7.4-2.95 2.95-3 2.95-7.45 0-4.55-3-7.5-2.95-2.95-7.5-2.95m-3.9 5.85q1.55-1.85 4.1-1.8 2.6.05 4.15 1.8 1.5 1.7 1.5 4.55 0 2.9-1.55 4.65-1.6 1.75-4.15 1.75-2.45 0-4.05-1.75-1.55-1.8-1.55-4.5 0-2.9 1.55-4.7m7.2-49.35v-.15q-21.504-20.05-51.3-20.05-31.3 0-53.4 22.15-22.15 22.1-22.15 53.4 0 7.14 1.15 13.8h.2q.15.85 1 .65.95-.35 1.35.15-.55.8-1.75.6-.294-.034-.55-.05 4.156 21.744 20.75 38.3 22.1 22.1 53.4 22.1 8.08 0 15.55-1.5 11.47-2.237 21.5-8 7.49-4.256 14.15-10.5-7.52-.317-17.4-.55-2.513-.057-4.8-.1-1.37.74-2.8 1.4-5.095 2.418-10.65 3.8-7.325 1.8-15.4 1.8-10.418 0-19.6-3 .007.088 0 .2l-.25-.05-.6.05-1.4-.05q.37-.35.55-.75-5.688-2.06-10.9-5.35-.812.916-1.2 1.45-.7.95-.65 2.1l-.1 3.65q.5 1.1 1.05 3.65v.4q-.5-.1-.7-1-.15-1-.45-1.25 0-.7-.25-.7l.25-8.4 1.95.05q-5.86-3.71-11.1-8.95-18-17.95-18-43.35 0-25.45 18-43.45 17.95-17.9 43.4-17.9 14.373 0 26.35 5.7 2.92.086 7.4.15 7.6.1 12.05.75L310.65 37q8.808 4.38 16.3 11.85 18 18 18 43.45 0 25.4-18 43.35-6.476 6.476-13.95 10.6l22.1.6q.91-.81 1.8-1.7Q359 123.05 359 91.7q0-31.3-22.1-53.4-1.006-1.006-2.05-2l-.1.05m-9.3-.95q.1.85-.9.75-1.4-.15-1.45-.1v-.75l2.35.1M312.5 23.1q-.55.65-1.75 1.05-1.3.5-1.85.95l-.3-.1q1.55-1.25 3.9-1.9m-6.65-.55q-.55.4-1.55.2-.5-.1-.25.55-1.1-1.25-1.15.3l-2.35-.05q1-.75.9-1.85-.65.1-1.15.1-.75-.05-.25-1.2 0 .55.85.8.95.3 1.2-.4l.05-.75 1.7.1q-1.6 1.2-1.8 2.45 1.15.1 1.55-1.75 1.85-.4.5 1.1.05 0 1.1-.2.4-.05.65.6m-20.6 4.4q.4-.1.65.55-.55.4-1.5.15-.45-.1-.25.5-1.1-1.1-1.15.35l-2.35-.1q.9-.75.95-1.75-.75.05-1.15.05-.85 0-.25-1.2 1.6 1.35 1.95.45l.05-.8 1.75.1q-1.65 1.4-1.8 2.5 1.1 0 1.5-1.8 1.95-.35.55 1.1.5.05 1.05-.1m36 2.7l.05-.35q.45-.15.3-.75h.3l-.1 4h-.85q.05-.4-.4-.6-.4-.15-.45-.55.9-1.05 1.15-1.75m-64.7 3.85h1.4q.15.85 1 .65.95-.35 1.35.15-.55.8-1.75.6-1.75-.2-2.35.05-.05-.5.6-.4.8.05.85.05.45-.3-.7-.35-1.15-.1-.4-.75m-1.7-1.35q.2.45-.15 1.25-.2.55.1.55v.35h-.9q.3-.05.25-1.3.05-1.1.7-.85m-5.25.8q.8.55.8 1.2h-1.7V31.6q.05.8.9 1.35M216.65 81.7q-.05-.5-.6-.4v-.35l5 .1v.45q-3.1-.65-3.8.2.4.75-.05 1.45v.35h-.6l.05-1.8m-3.3 2.85q.85.3 1.2-.35v-.75l1.7.05q-1.6 1.25-1.8 2.5 1.15.1 1.55-1.75 1.9-.4.55 1.05.05 0 1.05-.15.4-.05.7.55-.65.45-1.55.2-.5-.1-.3.55-1.05-1.2-1.15.3l-.25-.05-.6.05-1.4-.05q.85-.8.85-1.8-.65.1-1.15.1-.75-.05-.25-1.2 0 .45.85.75m67.3 79.9q.9-.75.95-1.75-.75.05-1.15.05-.85 0-.25-1.2 1.6 1.35 1.95.45l.05-.8 1.75.1q-1.65 1.4-1.8 2.5 1.1 0 1.5-1.8 1.95-.35.55 1.1.5.05 1.05-.1.4-.1.65.55-.55.4-1.5.15-.45-.1-.25.5-1.1-1.1-1.15.35l-2.35-.1m-29.2-10.75q-.35.35-.65.4l.05-.4q.7-.35.6-1.05.55.3.6.75.8-.2-.3-1.1 1.4.15 1.1 2.55-.65-.15-.75-.25-.65.25-.65-.9m69.35 0l-.15.4q.15.6.9 1.5-.3.45-.4-.1-.05-.75-.55-.65-.047-.08-.1-.1-.113-.008-.25.3l-.85-.3q.485-.04 1.1-.7.146-.158.3-.35m-6.25.05l-.6 1.3q-.65.05-.7.15.25.4-.1.35.2-.5-.25-.9.7.2 1.65-.9m-6.65-2.1q.6-.05.6.4l-.55-.05q-.05-.25-.85 0 1-1.95 1.2-2.9.25.1.6.35-.4.15-1 2.2m-3.6 7.15q-.5-.1-.25.55-1.1-1.25-1.15.3l-2.35-.05q1-.75.9-1.85-.65.1-1.15.1-.75-.05-.25-1.2 0 .55.85.8.95.3 1.2-.4l.05-.75 1.7.1q-1.6 1.2-1.8 2.45 1.15.1 1.55-1.75 1.85-.4.5 1.1.05 0 1.1-.2.4-.05.65.6-.55.4-1.55.2m8.2.35q-.55.65-1.75 1.05-1.3.5-1.85.95l-.3-.1q1.55-1.25 3.9-1.9z" id="a"/></defs><use xlink:href="#a" transform="translate(-207.9 -16.15)"/></svg>

<svg xmlns="http://www.w3.org/2000/svg" version="1.1" xmlns:xlink="http://www.w3.org/1999/xlink" preserveAspectRatio="none" x="0px" y="0px" width="151px" height="151px" viewBox="0 0 151 151">
<defs>
<g id="Layer0_0_FILL">
<path fill="#FF0000" stroke="none" d="
M 298.3 99.25
L 298.3 99.25 298.3 99.2 298.3 99.25
M 237.2 84.1
L 237.2 84.05 237.5 84.1 239.2 84.1 239.2 80.05 227.75 80.05 227.75 100.45 233.1 100.45 231.95 100.4
Q 232.85 99.65 232.9 98.65 232.15 98.7 231.75 98.7 230.9 98.7 231.5 97.5 233.1 98.85 233.45 97.95
L 233.5 97.15 235.25 97.25
Q 233.6 98.65 233.45 99.75 234.55 99.75 234.95 97.95 236.9 97.6 235.5 99.05 236 99.1 236.55 98.95 236.95 98.85 237.2 99.5 236.65 99.9 235.7 99.65 235.25 99.55 235.45 100.15 234.3693359375 99.0693359375 234.3 100.45
L 239.2 100.45 239.2 96.4 232.15 96.4 232.15 92.2 239.2 92.2 239.2 88.2 232.15 88.2 232.15 84.1 237.2 84.1
M 301.75 98.5
L 301.75 98.85
Q 301.9681640625 98.5173828125 302.2 98.15 301.994921875 98.2494140625 301.75 98.5
M 301.75 97.85
Q 301.797265625 97.888671875 301.85 97.9 301.837109375 97.757421875 301.75 97.65
L 301.75 97.85
M 301.75 97.1
L 302.45 97.15
Q 302.4728515625 97.3787109375 302.55 97.55 304.1029296875 95.1232421875 306.2 91.25
L 306.2 83.95
Q 303.9794921875 83.5103515625 301.75 83.4
L 301.75 97.1
M 291.9 83.55
Q 289.09375 83.378515625 285.8 83.2
L 278.95 100.45 283.3 100.45 284.9 96.45 292.75 96.45 293.25 97.75 294.15 97.05
Q 293.780078125 97.4080078125 293.3 97.9
L 294.35 100.45 298.8 100.45 298.4 99.45
Q 297.491015625 99.13203125 297.2 97.75 297.365625 97.75 297.75 97.9
L 291.9 83.55
M 288.8 86.75
L 291.25 92.75 286.4 92.75 288.8 86.75
M 295.4 98.45
Q 295.4 98.1 295.95 98 296.5 97.95 296.6 97.75 296.35 97.5 296.35 97.75 295.85 97.7 296.1 96.95
L 296.65 97.05
Q 296.9 97.4 296.7 97.9 296.6 98.5 296 98.45 296.05 98.6 296.85 98.45 297.2 98.55 297.45 99.15 296.7 99.4 296.55 100.25 296 100.3 295.75 99.55 295.5 98.55 295.4 98.45
M 286 82.8
L 291.7 82.95 290.5 80.05 287.1 80.05 286 82.8
M 301.75 80.05
L 301.75 83.25 310.7 83.5
Q 310.7 83.65 310.1 83.85 308.027734375 83.394140625 307.35 83.9
L 307.8 83.9
Q 309.0841796875 83.9 310.45 84.35 311.3322265625 83.2177734375 312 82.55 311.451171875 83.558984375 310.9 84.5 312.467578125 85.033984375 313.25 86.55 314.1 88.1 314.1 90.1 314.1 93.4111328125 312.45 94.9 313.6236328125 95.2462890625 312.9 99.25
L 312.6 99.25 312.6 98.55
Q 311.7873046875 96.721484375 310.8 96 309.5451171875 96.5 307.95 96.5
L 306.2 96.5 306.2 92.75
Q 304.728125 95.236328125 303.45 97.2
L 308.8 97.3
Q 308.9 97.75 308.3 97.95 307.8 98.1 307.95 98.75 308.3 98.6 308.8 98.1
L 309 98.8
Q 309.15 99.35 309.9 99.2 308.2 99.75 306.65 98.95 304.95 98.1 304.15 98.3 304.15 98.25625 303.3 97.45 303.1072265625 97.7482421875 302.9 98 303.2857421875 98.36015625 303.95 98.55 305.55 98.95 305.9 99.5 305.5533203125 99.945703125 302.75 98.25 302.233203125 99.064453125 301.75 99.75
L 301.75 100.45 307 100.45
Q 306.36171875 100.05 306.75 100.05 307.0056640625 100.05 308.45 100.45 313.033203125 100.416796875 315.8 97.65 318.6 94.9 318.6 90.3 318.6 85.7 315.9 82.9 313.2 80.05 308.7 80.05
L 301.75 80.05
M 262.05 96.15
Q 261.6974609375 96.285546875 261.4 96.4
L 261.4 100.45 265.8 100.45 265.8 92.55 266.3 92.55 271.6 100.45 276.65 100.45 270.95 91.95
Q 271.7626953125 91.5908203125 272.4 91.1 272.2681640625 90.7263671875 271.9 90.8 271.75 90.55 271.55 91
L 270.7 90.7
Q 271.3 90.65 272.1 89.65
L 271.95 90.05
Q 272.057421875 90.479296875 272.45 91.05 273.442578125 90.3146484375 273.95 89.3 274.75 87.6 274.75 86.05 274.75 84.14296875 273.85 82.8 271.3080078125 82.7150390625 268.55 82.65 264.72421875 82.5626953125 261.4 82.45
L 261.4 96
Q 262.472265625 95.4671875 263.8 95.1 263.25 95.75 262.05 96.15
M 265.85 83.7
L 266.85 83.7
Q 268.45 83.7 269.35 84.4 270.25 85.05 270.25 86.2 270.25 89 266.8 89
L 265.85 89 265.85 83.7
M 265.25 91
Q 264.6 91.05 264.55 91.15 264.8 91.55 264.45 91.5 264.65 91 264.2 90.6 264.9 90.8 265.85 89.7
L 265.25 91
M 253.35 94.8
Q 253.834375 94.8421875 254.15 94.55
L 253.7 93.85
Q 253.4267578125 94.3205078125 253.35 94.8
M 261.4 80.05
L 261.4 82.15 273.65 82.45
Q 273.355859375 82.0607421875 272.95 81.7 271.2 80.05 268.15 80.05
L 261.4 80.05
M 255.1 82.4
Q 254.94140625 82.4134765625 254.7 82.4
L 254.7 82.3
Q 246.7197265625 82.11328125 242.9 81.95
L 242.9 85.15
Q 243.599609375 84.5203125 245.35 84.65
L 245.35 84.3 245.95 84.3
Q 246 84.5 247.15 84.7 247 85.25 245.7 85 244.65 84.8 244.75 85.75
L 247.05 85.8
Q 246.15 86.8 244.8 86.2 243.66328125 85.707421875 242.9 85.85
L 242.9 100.45 247.3 100.45 247.3 92.55 247.8 92.55 253.1 100.45 258.15 100.45 254.35 94.85
Q 254.2181640625 95.0392578125 254.2 95.6
L 251.85 95.55
Q 252.85 94.8 252.75 93.7 252.1 93.8 251.6 93.8 250.85 93.75 251.35 92.6 251.35 93.15 252.2 93.4 252.977734375 93.6455078125 253.25 93.2
L 252.45 91.95
Q 254.6 91 255.45 89.3 256.25 87.6 256.25 86.05 256.25 84.4474609375 255.6 83.2 255.244140625 83.8 255 83.8 255.4177734375 83.3822265625 255.5 83 255.344921875 82.7111328125 255.1 82.4
M 250.85 84.4
Q 251.75 85.05 251.75 86.2 251.75 89 248.3 89
L 247.35 89 247.35 83.7 248.35 83.7
Q 249.95 83.7 250.85 84.4
M 254.7 81.95
Q 254.59765625 81.83125 254.45 81.7 252.7 80.05 249.65 80.05
L 242.9 80.05 242.9 81.65 254.7 81.95
M 331.45 79.85
Q 327.35 79.85 324.4 82.8 321.4 85.75 321.4 90.25 321.4 94.8 324.3 97.75 327.15 100.7 331.6 100.7 336.05 100.7 339 97.75 341.95 94.75 341.95 90.3 341.95 85.75 338.95 82.8 336 79.85 331.45 79.85
M 327.55 85.7
Q 329.1 83.85 331.65 83.9 334.25 83.95 335.8 85.7 337.3 87.4 337.3 90.25 337.3 93.15 335.75 94.9 334.15 96.65 331.6 96.65 329.15 96.65 327.55 94.9 326 93.1 326 90.4 326 87.5 327.55 85.7
M 334.75 36.35
L 334.75 36.2
Q 313.24609375 16.15 283.45 16.15 252.15 16.15 230.05 38.3 207.9 60.4 207.9 91.7 207.9 98.8400390625 209.05 105.5
L 209.25 105.5
Q 209.4 106.35 210.25 106.15 211.2 105.8 211.6 106.3 211.05 107.1 209.85 106.9 209.5560546875 106.86640625 209.3 106.85 213.45625 128.59375 230.05 145.15 252.15 167.25 283.45 167.25 291.53046875 167.25 299 165.75 310.4697265625 163.5130859375 320.5 157.75 327.988671875 153.494140625 334.65 147.25 327.130078125 146.933203125 317.25 146.7 314.7373046875 146.642578125 312.45 146.6 311.0802734375 147.3388671875 309.65 148 304.555078125 150.417578125 299 151.8 291.6751953125 153.6 283.6 153.6 273.181640625 153.6 264 150.6 264.007421875 150.68828125 264 150.8
L 263.75 150.75 263.15 150.8 261.75 150.75
Q 262.1212890625 150.4005859375 262.3 150 256.61171875 147.9390625 251.4 144.65 250.5880859375 145.56640625 250.2 146.1 249.5 147.05 249.55 148.2
L 249.45 151.85
Q 249.95 152.95 250.5 155.5
L 250.5 155.9
Q 250 155.8 249.8 154.9 249.65 153.9 249.35 153.65 249.35 152.95 249.1 152.95
L 249.35 144.55 251.3 144.6
Q 245.438671875 140.888671875 240.2 135.65 222.2 117.7 222.2 92.3 222.2 66.85 240.2 48.85 258.15 30.95 283.6 30.95 297.9732421875 30.95 309.95 36.65 312.8712890625 36.736328125 317.35 36.8 324.95 36.9 329.4 37.55
L 310.65 37
Q 319.4580078125 41.37890625 326.95 48.85 344.95 66.85 344.95 92.3 344.95 117.7 326.95 135.65 320.4740234375 142.1259765625 313 146.25
L 335.1 146.85
Q 336.0087890625 146.0390625 336.9 145.15 359 123.05 359 91.7 359 60.4 336.9 38.3 335.8935546875 37.2935546875 334.85 36.3 334.7736328125 36.3380859375 334.75 36.35
M 325.45 35.4
Q 325.55 36.25 324.55 36.15 323.15 36 323.1 36.05
L 323.1 35.3 325.45 35.4
M 312.5 23.1
Q 311.95 23.75 310.75 24.15 309.45 24.65 308.9 25.1
L 308.6 25
Q 310.15 23.75 312.5 23.1
M 305.85 22.55
Q 305.3 22.95 304.3 22.75 303.8 22.65 304.05 23.3 302.95 22.05 302.9 23.6
L 300.55 23.55
Q 301.55 22.8 301.45 21.7 300.8 21.8 300.3 21.8 299.55 21.75 300.05 20.6 300.05 21.15 300.9 21.4 301.85 21.7 302.1 21
L 302.15 20.25 303.85 20.35
Q 302.25 21.55 302.05 22.8 303.2 22.9 303.6 21.05 305.45 20.65 304.1 22.15 304.15 22.15 305.2 21.95 305.6 21.9 305.85 22.55
M 285.25 26.95
Q 285.65 26.85 285.9 27.5 285.35 27.9 284.4 27.65 283.95 27.55 284.15 28.15 283.05 27.05 283 28.5
L 280.65 28.4
Q 281.55 27.65 281.6 26.65 280.85 26.7 280.45 26.7 279.6 26.7 280.2 25.5 281.8 26.85 282.15 25.95
L 282.2 25.15 283.95 25.25
Q 282.3 26.65 282.15 27.75 283.25 27.75 283.65 25.95 285.6 25.6 284.2 27.05 284.7 27.1 285.25 26.95
M 321.25 29.65
L 321.3 29.3
Q 321.75 29.15 321.6 28.55
L 321.9 28.55 321.8 32.55 320.95 32.55
Q 321 32.15 320.55 31.95 320.15 31.8 320.1 31.4 321 30.35 321.25 29.65
M 256.55 33.5
L 257.95 33.5
Q 258.1 34.35 258.95 34.15 259.9 33.8 260.3 34.3 259.75 35.1 258.55 34.9 256.8 34.7 256.2 34.95 256.15 34.45 256.8 34.55 257.6 34.6 257.65 34.6 258.1 34.3 256.95 34.25 255.8 34.15 256.55 33.5
M 254.85 32.15
Q 255.05 32.6 254.7 33.4 254.5 33.95 254.8 33.95
L 254.8 34.3 253.9 34.3
Q 254.2 34.25 254.15 33 254.2 31.9 254.85 32.15
M 249.6 32.95
Q 250.4 33.5 250.4 34.15
L 248.7 34.15 248.7 31.6
Q 248.75 32.4 249.6 32.95
M 216.65 81.7
Q 216.6 81.2 216.05 81.3
L 216.05 80.95 221.05 81.05 221.05 81.5
Q 217.95 80.85 217.25 81.7 217.65 82.45 217.2 83.15
L 217.2 83.5 216.6 83.5 216.65 81.7
M 213.35 84.55
Q 214.2 84.85 214.55 84.2
L 214.55 83.45 216.25 83.5
Q 214.65 84.75 214.45 86 215.6 86.1 216 84.25 217.9 83.85 216.55 85.3 216.6 85.3 217.6 85.15 218 85.1 218.3 85.7 217.65 86.15 216.75 85.9 216.25 85.8 216.45 86.45 215.4 85.25 215.3 86.75
L 215.05 86.7 214.45 86.75 213.05 86.7
Q 213.9 85.9 213.9 84.9 213.25 85 212.75 85 212 84.95 212.5 83.8 212.5 84.25 213.35 84.55
M 280.65 164.45
Q 281.55 163.7 281.6 162.7 280.85 162.75 280.45 162.75 279.6 162.75 280.2 161.55 281.8 162.9 282.15 162
L 282.2 161.2 283.95 161.3
Q 282.3 162.7 282.15 163.8 283.25 163.8 283.65 162 285.6 161.65 284.2 163.1 284.7 163.15 285.25 163 285.65 162.9 285.9 163.55 285.35 163.95 284.4 163.7 283.95 163.6 284.15 164.2 283.05 163.1 283 164.55
L 280.65 164.45
M 251.45 153.7
Q 251.1 154.05 250.8 154.1
L 250.85 153.7
Q 251.55 153.35 251.45 152.65 252 152.95 252.05 153.4 252.85 153.2 251.75 152.3 253.15 152.45 252.85 154.85 252.2 154.7 252.1 154.6 251.45 154.85 251.45 153.7
M 320.8 153.7
L 320.65 154.1
Q 320.8 154.7 321.55 155.6 321.25 156.05 321.15 155.5 321.1 154.75 320.6 154.85 320.5525390625 154.7708984375 320.5 154.75 320.38671875 154.7423828125 320.25 155.05
L 319.4 154.75
Q 319.884765625 154.7095703125 320.5 154.05 320.6462890625 153.8921875 320.8 153.7
M 314.55 153.75
L 313.95 155.05
Q 313.3 155.1 313.25 155.2 313.5 155.6 313.15 155.55 313.35 155.05 312.9 154.65 313.6 154.85 314.55 153.75
M 307.9 151.65
Q 308.5 151.6 308.5 152.05
L 307.95 152
Q 307.9 151.75 307.1 152 308.1 150.05 308.3 149.1 308.55 149.2 308.9 149.45 308.5 149.6 307.9 151.65
M 304.3 158.8
Q 303.8 158.7 304.05 159.35 302.95 158.1 302.9 159.65
L 300.55 159.6
Q 301.55 158.85 301.45 157.75 300.8 157.85 300.3 157.85 299.55 157.8 300.05 156.65 300.05 157.2 300.9 157.45 301.85 157.75 302.1 157.05
L 302.15 156.3 303.85 156.4
Q 302.25 157.6 302.05 158.85 303.2 158.95 303.6 157.1 305.45 156.7 304.1 158.2 304.15 158.2 305.2 158 305.6 157.95 305.85 158.6 305.3 159 304.3 158.8
M 312.5 159.15
Q 311.95 159.8 310.75 160.2 309.45 160.7 308.9 161.15
L 308.6 161.05
Q 310.15 159.8 312.5 159.15 Z"/>
</g>
</defs>

<g transform="matrix( 1, 0, 0, 1, -207.9,-16.15) ">
<use xlink:href="#Layer0_0_FILL"/>
</g>
</svg>
